<?xml version="1.0" encoding="UTF-8"?>
<map version="1.10" tiledversion="1.12.1" orientation="orthogonal" renderorder="right-down" width="28" height="33" tilewidth="8" tileheight="8" infinite="0" nextlayerid="2" nextobjectid="1">
 <tileset firstgid="1" source="../Tilesets/menu_v2/main_menu_v2_tiles.tsx"/>
 <layer id="1" name="Tile Layer 1" width="28" height="33">
  <data encoding="csv">
1,1,1,1,143,2147483791,1,1,1,1,1,1,1,1,1,1,1,10,2147483658,2147483649,2147483649,2147483649,2147483649,2147483649,2147483649,2147483649,2147483649,2147483649,
1,1,1,1,143,2147483791,1,1,1,1,1,1,1,1,1,1,1,10,2147483658,2147483649,2147483649,2147483649,2147483649,2147483649,2147483649,2147483649,2147483649,2147483649,
1,1,1,1,143,2147483791,1,1,1,1,1,1,1,1,1,1,1,23,2147483671,2147483649,2147483649,2147483649,2147483649,2147483649,2147483649,2147483649,2147483649,2147483649,
1,1,1,1,143,2147483791,1,1,1,1,1,1,1,1,1,1,1,36,2147483684,2147483649,2147483649,2147483649,2147483649,2147483649,2147483649,2147483649,2147483649,2147483649,
1,1,1,1,143,2147483791,1,1,1,1,1,1,1,1,1,1,1,49,2147483697,2147483649,2147483649,2147483649,2147483649,2147483649,2147483649,2147483649,2147483649,2147483649,
1,1,1,1,143,2147483791,1,1,1,1,1,1,1,1,1,1,1,49,2147483697,2147483649,2147483649,2147483649,2147483649,2147483649,2147483649,2147483649,2147483649,2147483649,
1,1,1,1,143,2147483791,1,1,1,1,1,1,1,1,1,1,1,49,2147483697,2147483649,2147483649,2147483649,2147483649,2147483649,2147483649,2147483649,2147483649,2147483649,
1,1,1,1,143,2147483791,1,1,1,1,1,1,1,1,1,1,1,62,2147483710,2147483649,2147483649,2147483649,2147483649,2147483649,2147483649,2147483649,2147483649,2147483649,
1,1,1,1,143,2147483791,1,1,1,1,1,1,1,1,1,1,1,179,179,2147483649,2147483649,2147483649,2147483649,2147483649,2147483649,2147483649,2147483649,2147483649,
1,1,1,1,143,2147483791,1,1,1,1,1,1,1,1,1,1,1,179,179,2147483649,2147483649,2147483649,2147483649,2147483649,2147483649,2147483649,2147483649,2147483649,
1,1,1,1,143,2147483791,1,1,1,1,1,1,1,1,1,1,74,179,179,2147483649,2147483649,2147483649,2147483649,2147483649,2147483649,2147483649,2147483649,2147483649,
1,1,1,1,143,2147483791,1,1,1,1,1,1,1,1,1,1,1,179,179,2147483649,2147483649,2147483649,2147483649,2147483649,2147483649,2147483649,2147483649,2147483649,
1,1,1,1,143,2147483791,1,1,1,1,1,1,1,1,1,1,1,179,179,2147483722,2147483649,2147483649,2147483649,2147483649,2147483649,2147483649,2147483649,2147483649,
1,1,1,1,143,2147483791,1,1,1,1,1,1,2684354615,1,1,1,139,179,179,2147483787,2147483649,2147483649,2147483649,536870967,2147483649,2147483649,2147483649,2147483649,
1,1,1,1,143,2147483791,1,1,1,1,55,56,57,1,1,2147483722,139,179,179,2147483787,1,1,1,2147483705,2147483704,2147483703,1,1,
1,1,1,1,143,2147483791,1,1,1,1,1,69,70,71,72,73,139,179,179,2147483787,2147483721,2147483720,2147483719,2147483718,2147483717,1,1,1,
1,1,1,1,143,2147483791,1,1,1,1,1,1,1,84,85,86,87,179,179,2147483735,2147483734,2147483733,2147483732,1,1,1,1,1,
1,1,1,1,143,2147483791,1,1,1,1,1,1,1,1,98,99,100,179,179,2147483748,2147483747,2147483746,1,1,1,1,1,1,
1,1,1,1,143,2147483791,1,1,1,1,1,1,1,1,1,1,113,179,179,2147483761,1,1,1,1,1,1,1,1,
1,1,1,1,143,2147483791,1,1,1,1,1,1,1,1,1,1,126,179,179,2147483774,1,1,1,1,1,1,1,1,
1,1,1,1,143,2147483791,1,1,1,1,133,134,135,1,1,1,139,179,179,2147483787,1,1,1,2147483783,2147483782,2147483781,1,1,
1,1,1,155,156,2147483804,2147483803,2147483802,1,1,146,147,1,1,1,1,152,179,179,2147483800,1,1,1,1,2147483795,2147483794,1,1,
1,1,1,168,169,2147483817,1,1,1,1,1,160,161,162,1,1,165,179,179,2147483813,1,1,2147483810,2147483809,2147483808,1,1,1,
1,1,1,1,182,2147483830,1,1,1,1,1,173,174,1,176,177,178,179,2147483827,2147483826,2147483825,2147483824,1,2147483822,2147483821,1,1,1,
1,1,1,194,195,2147483843,2147483842,1,1,1,185,186,187,188,1,1,191,192,2147483840,2147483839,1,1,2147483836,2147483835,2147483834,2147483833,1,1,
1,1,1,1,208,2147483856,1,1,1,1,198,199,200,201,1,1,204,205,2147483853,2147483852,1,1,2147483849,2147483848,2147483847,2147483846,1,1,
1,1,1,1,221,2147483869,1,1,1,1,1,212,213,214,215,216,217,218,2147483866,2147483865,2147483864,2147483863,2147483862,2147483861,2147483860,1,1,1,
1,1,1,233,234,2147483882,2147483881,1,1,1,224,225,226,227,228,229,230,231,2147483879,2147483878,2147483877,2147483876,2147483875,2147483874,2147483873,2147483872,1,1,
2147483884,2147483883,245,1,247,2147483895,1,2147483893,235,236,237,238,239,240,241,242,243,244,2147483892,2147483891,2147483890,2147483889,2147483888,2147483887,2147483886,2147483885,2147483884,2147483883,
2147483897,2147483896,258,259,260,2147483908,2147483907,2147483906,248,249,250,251,1,253,254,255,256,257,2147483905,2147483904,2147483903,2147483902,2147483901,1,2147483899,2147483898,2147483897,2147483896,
2147483910,2147483909,271,1,273,2147483921,1,2147483919,261,262,263,264,265,266,267,268,269,270,2147483918,2147483917,2147483916,2147483915,2147483914,2147483913,2147483912,2147483911,2147483910,2147483909,
2147483923,2147483922,284,285,286,2147483934,2147483933,2147483932,274,275,276,277,278,279,280,281,282,283,2147483931,2147483930,2147483929,2147483928,2147483927,2147483926,2147483925,2147483924,2147483923,2147483922,
2147483936,2147483935,297,298,299,2147483947,2147483946,2147483945,287,288,289,290,291,292,293,294,295,296,2147483944,2147483943,2147483942,2147483941,2147483940,2147483939,2147483938,2147483937,2147483936,2147483935
</data>
 </layer>
</map>
