<?xml version="1.0" encoding="UTF-8"?>
<map version="1.10" tiledversion="1.12.1" orientation="orthogonal" renderorder="right-down" width="41" height="18" tilewidth="8" tileheight="8" infinite="0" nextlayerid="4" nextobjectid="1">
 <tileset firstgid="1" source="../Tilesets/Dreemur_House/Dreemurr_House.tsx"/>
 <layer id="1" name="Tile Layer 1" width="41" height="18">
  <data encoding="csv">
0,0,0,0,0,0,0,0,0,0,0,0,0,0,0,0,0,0,0,0,0,0,0,0,0,0,0,0,0,0,0,0,0,0,0,0,0,0,0,0,0,
0,89,3,3,62,62,3,3,3,3,3,3,3,3,3,3,3,3,3,3,3,3,3,3,3,3,3,3,3,3,3,3,3,3,3,3,3,3,3,2147483737,0,
0,89,3,3,62,62,3,3,3,3,3,3,3,3,3,3,3,3,3,3,3,3,3,3,3,3,3,3,3,3,3,3,3,3,3,3,3,3,3,2147483737,0,
0,89,3,3,62,62,3,3,3,3,3,3,3,3,3,3,3,3,3,3,3,3,3,3,3,3,3,3,3,3,3,3,3,3,3,3,3,3,3,2147483737,0,
0,89,3,3,62,62,3,3,3,3,3,29,3221225477,2147483677,3,3,3,29,3221225477,2147483677,3,3,3,3,3,3,29,3221225477,2147483677,3,3,3,3,29,3221225477,2147483677,3,3,3,2147483737,0,
0,89,3,3,62,62,3,3,2147483748,3,3,30,3,2147483678,3,3,3,30,3,2147483678,3,100,3,3,3,2147483748,30,3,2147483678,3,3,3,3,30,3,2147483678,3,100,3,2147483737,0,
0,89,3,3,62,62,3,3,3,3,3,31,5,2147483679,3,3,3,31,5,2147483679,3,3,3,3,3,2684354617,31,5,2147483679,3,87,2147483735,3,31,5,2147483679,2684354617,3,3,2147483737,0,
0,89,3,3,62,62,3,3,536870921,2684354569,3,3,3,3,3,3,3,3,3,3,3,3,3,3,3,1610612793,3,3,3,536870935,88,2147483736,2147483671,3,3,3,1610612793,3,3,2147483737,0,
0,89,3,3,62,62,3,3,1073741833,3221225481,3,68,69,2147483716,72,73,2147483720,68,76,77,3,3,3,3,3,102,83,84,3,1073741847,86,2147483734,3758096407,3,2147483732,83,102,3,3,2147483737,0,
0,89,3,3,62,62,3,3,536870921,2684354569,101,1073741847,71,3758096407,74,75,2147483722,1073741847,78,3758096407,2684354584,2147483671,3,3,3,102,2684354566,2147483657,1,1073741847,1610612760,1610612760,3758096407,1,9,2684354566,102,1,3,2147483737,0,
0,89,3,3,62,62,3,3,6,2147483654,1,1073741847,67,3221225495,70,71,2147483718,1073741847,67,3221225495,1,79,3,99,3,82,83,84,1,1,1,1,1,1,2147483732,2147483731,2147483730,1,3,2147483737,0,
0,89,3,3,62,62,3,3,1610612745,3758096393,1,1,1,1,1,1,1,1,1,1,1,80,3,3,3,81,85,2147483729,1,1,1,1,1,1,81,85,2147483729,1,3,2147483737,0,
0,89,3,1,1,1,1,1,24,1,1,1,1,1,1,1,1,1,1,1,1,2147483672,1,1,1,1,1,1,1,1,536870935,2147483671,1,1,1,1,1,1,62,62,0,
0,62,62,1,1,1,1,1,24,1,1,1,1,1,1,1,1,1,1,1,1,2147483672,1,1,1,1,1,1,1,1,1073741847,3758096407,1,1,1,1,1,1,62,62,0,
0,62,62,1,1,1,1,1,24,1,1,1,1,1,1,1,1,1,1,1,1,2147483672,1,1,1,1,1,1,1,1,1,1,1,1,1,1,1,1,3,2147483737,0,
0,89,3,1,1,1,1,1,24,1,1,1,1,1,1,1,1,1,1,1,1,2147483672,1,1,1,1,1,1,1,1,1,1,1,1,1,1,1,1,3,2147483737,0,
0,89,3,1,1,1,1,1,24,1,1,1,1,1,1,1,1,1,1,1,1,2147483672,1,1,1,1,1,1,1,1,1,1,1,1,1,1,1,1,3,2147483737,0,
0,0,0,0,0,0,0,0,0,0,0,0,0,0,0,0,0,0,0,0,0,0,0,0,0,0,0,0,0,0,0,0,0,0,0,0,0,0,0,0,0
</data>
 </layer>
 <layer id="3" name="Tables and Stuff" width="41" height="18">
  <data encoding="csv">
0,0,0,0,0,0,0,0,0,0,0,0,0,0,0,0,0,0,0,0,0,0,0,0,0,0,0,0,0,0,0,0,0,0,0,0,0,0,0,0,0,
0,0,0,0,0,0,0,0,0,0,0,0,0,0,0,0,0,0,0,0,0,0,0,0,0,0,0,0,0,0,0,0,0,0,0,0,0,0,0,0,0,
0,0,0,0,0,0,0,0,0,0,0,0,0,0,0,0,0,0,0,0,0,0,0,0,0,0,0,0,0,0,0,0,0,0,0,0,0,0,0,0,0,
0,0,0,0,0,0,0,0,0,0,0,0,0,0,0,0,0,0,0,0,0,0,0,0,0,0,0,0,0,0,0,0,0,0,0,0,0,0,0,0,0,
0,0,0,0,0,0,0,0,0,0,0,0,0,0,0,0,0,0,0,0,0,0,0,0,0,0,0,0,0,0,0,0,0,0,0,0,0,0,0,0,0,
0,0,0,0,0,0,0,0,0,0,0,0,0,0,0,0,0,0,0,0,0,0,0,0,0,0,0,0,0,0,0,0,0,0,0,0,0,0,0,0,0,
0,0,0,0,0,0,0,0,0,0,0,0,0,0,0,0,0,0,0,0,0,0,0,0,0,0,0,0,0,0,0,0,0,0,0,0,0,0,0,0,0,
0,0,0,0,0,0,0,0,0,0,0,0,0,0,0,0,0,0,0,0,0,0,0,0,0,0,0,0,0,0,0,0,0,0,0,0,0,0,0,0,0,
0,0,0,0,0,0,0,0,0,0,0,0,0,0,0,0,0,0,0,0,0,0,0,0,0,0,0,0,0,0,0,0,0,0,0,0,0,0,0,0,0,
0,0,0,0,0,0,0,0,0,0,0,0,0,0,0,0,0,0,0,0,0,0,0,0,0,0,0,0,0,0,0,0,0,0,0,0,0,0,0,0,0,
0,0,0,0,0,0,0,0,0,0,0,0,0,0,0,0,0,0,0,0,0,0,0,0,0,0,0,0,0,0,0,0,0,0,0,0,0,0,0,0,0,
0,0,0,0,0,0,0,0,0,0,0,0,0,0,0,0,0,0,0,0,0,0,0,0,0,0,0,0,0,0,0,0,0,0,0,0,0,0,0,0,0,
0,0,0,0,0,0,0,0,0,0,0,0,0,0,0,0,0,0,0,0,0,0,0,0,0,0,0,0,0,0,0,0,0,0,0,0,0,0,0,0,0,
0,0,0,0,0,0,0,0,0,0,0,0,0,0,0,0,0,0,0,0,0,0,0,0,0,0,0,0,0,0,0,0,0,0,0,0,0,0,0,0,0,
0,0,0,0,0,0,0,0,0,0,0,90,93,2147483741,94,94,93,2147483741,2147483738,0,0,0,0,0,0,0,0,90,2147483738,0,0,0,0,90,2147483738,0,0,0,0,0,0,
0,0,0,0,0,0,0,0,0,0,0,91,62,62,62,62,62,62,2147483739,0,0,0,0,0,0,0,0,1610612830,95,96,96,96,96,2147483743,2684354654,0,0,0,0,0,0,
0,0,0,0,0,0,0,0,0,0,0,92,62,62,62,62,62,62,2147483740,0,0,0,0,0,0,0,0,1610612830,97,98,2147483746,98,2147483746,2147483745,2684354654,0,0,0,0,0,0,
0,0,0,0,0,0,0,0,0,0,0,0,0,0,0,0,0,0,0,0,0,0,0,0,0,0,0,0,0,0,0,0,0,0,0,0,0,0,0,0,0
</data>
 </layer>
</map>
