<?xml version="1.0" encoding="UTF-8"?>
<map version="1.10" tiledversion="1.12.1" orientation="orthogonal" renderorder="right-down" width="30" height="18" tilewidth="8" tileheight="8" infinite="0" nextlayerid="2" nextobjectid="1">
 <tileset firstgid="1" source="../Tilesets/Dreemur_House/Dreemurr_House.tsx"/>
 <layer id="1" name="Tile Layer 1" width="30" height="18">
  <data encoding="csv">
0,0,0,0,0,0,0,0,0,0,0,0,0,0,0,0,0,0,0,0,0,0,0,0,0,0,0,0,0,0,
0,0,0,0,0,0,0,0,0,0,0,0,0,0,0,0,0,0,0,0,0,0,0,0,0,0,0,0,0,0,
0,0,0,0,0,0,0,0,0,0,0,0,0,0,0,0,0,0,0,0,0,0,0,0,0,0,0,0,0,0,
0,0,0,0,0,0,0,0,0,0,0,0,0,0,0,0,0,0,0,0,0,0,0,0,0,0,0,0,0,0,
3,3,3,3,3,3,3,3,3,3,3,3,3,3,3,3,3,3,3,3,3,3,3,3,3,3,62,62,3,3,
3,3,3,46,1073741869,2684354606,3,3,3,3,3,3,3,3,3,3,3,3,46,1073741869,2684354606,3,57,16,2147483705,3,62,62,3,3,
3,3,3,2684354605,2684354563,1610612781,2684354563,1073741889,3221225537,3,2684354625,536870976,536870976,536870977,3,3,3,3,2684354605,3,1610612781,3,58,59,2147483706,3,62,62,3,3,
3,3,3,2684354605,2684354563,47,2684354563,64,3221225536,3,48,49,50,51,52,54,2147483700,3,2684354605,3,47,3,60,61,2147483708,3,62,62,3,3,
45,45,45,63,3,2147483711,45,65,2147483713,45,57,16,16,2147483705,53,55,2147483701,45,63,3,2147483711,45,60,61,2147483708,45,2684354649,2684354649,45,45,
1,1,1,1,1,1,1,1,1,1,1073741882,3221225531,3221225531,3221225530,1,56,1,1,1,1,1,1,1073741882,3221225531,3221225530,1,1,1,1,1,
1,1,1,1,1,1,1,1,23,2684354584,2684354584,2684354584,2684354584,2684354584,2684354584,2684354584,2684354584,2684354584,2684354584,2684354584,2684354584,2684354584,2684354584,2684354584,2684354583,1,1,1,1,1,
1,1,1,1,1,1,1,1,24,1,1,1,1,1,1,1,1,1,1,1,1,1,1,1,3221225496,1,1,1,1,1,
1,1,1,1,1,1,1,1,1610612759,1610612760,1610612760,1610612760,1610612760,1610612760,1610612760,1610612760,1610612760,1610612760,1610612760,1610612760,1610612760,1610612760,1610612760,1610612760,3221225495,1,1,1,1,1,
0,0,0,0,0,0,0,0,0,0,0,0,0,0,0,0,0,0,0,0,0,0,0,0,0,0,0,0,0,0,
0,0,0,0,0,0,0,0,0,0,0,0,0,0,0,0,0,0,0,0,0,0,0,0,0,0,0,0,0,0,
0,0,0,0,0,0,0,0,0,0,0,0,0,0,0,0,0,0,0,0,0,0,0,0,0,0,0,0,0,0,
0,0,0,0,0,0,0,0,0,0,0,0,0,0,0,0,0,0,0,0,0,0,0,0,0,0,0,0,0,0,
0,0,0,0,0,0,0,0,0,0,0,0,0,0,0,0,0,0,0,0,0,0,0,0,0,0,0,0,0,0
</data>
 </layer>
</map>
