<?xml version="1.0" encoding="UTF-8"?>
<map version="1.10" tiledversion="1.12.1" orientation="orthogonal" renderorder="right-down" width="20" height="18" tilewidth="8" tileheight="8" infinite="0" nextlayerid="3" nextobjectid="1">
 <tileset firstgid="1" source="../Tilesets/Dreemur_House/Dreemurr_House.tsx"/>
 <layer id="1" name="Tile Layer 1" width="20" height="18">
  <data encoding="csv">
0,0,0,0,0,0,0,0,0,0,0,0,0,0,0,0,0,0,0,0,
0,3,3,38,3,1610612768,3,3,3,3,3,3,3,3,3,3,3,3,3,0,
0,35,2147483687,37,2147483683,3,33,32,3,29,2147483677,3,3,3,3,35,36,36,2147483683,0,
0,3,38,33,32,34,3,3,3,30,2147483678,3,3,3,3,3,3,3,3,0,
0,35,37,39,2147483683,3,1610612768,3,3,31,2147483679,3,3,3,3,35,36,36,2147483683,0,
0,4,5,5,2147483652,3,3,18,3,3,3,3,3,3,18,4,5,5,2147483652,0,
0,6,7,2147483655,2147483654,14,16,17,1,1,1,1,15,16,17,6,7,2147483655,2147483654,0,
0,12,13,13,2147483660,19,20,2147483667,1,1,2147483650,1,19,20,2147483667,6,1,1,8,0,
0,12,13,13,2147483660,1,1,1,2,1,1,1,1,1,1,9,536870918,536870918,2147483654,0,
0,12,13,13,2147483660,1,1,536870935,2684354584,2684354584,2684354584,2684354584,2147483671,2147483650,1,6,1,1,2147483654,0,
0,10,11,11,2147483658,1,1,25,26,27,2147483675,2147483674,2147483673,1,1,10,11,11,2147483658,0,
0,1,2,1,1,1,1,24,1,28,2147483676,1,3221225496,1,1,1,1,1,1,0,
0,1,1,1,1,2147483650,1,1073741847,1610612760,1610612760,1610612760,1610612760,3758096407,1,1,2147483650,1,1,22,0,
0,1,40,2147483688,1,1,1,1,1,1,1,1,2,1,1,1,2147483691,43,1,0,
0,2,2147483690,2147483689,17,1,1,1,1,1,1,1,1,1,1,21,44,2147483692,1,0,
0,0,0,0,0,0,0,0,0,2147483650,1,0,0,0,0,0,0,0,0,0,
0,0,0,0,0,0,0,0,0,1,1,0,0,0,0,0,0,0,0,0,
0,0,0,0,0,0,0,0,0,1,1,0,0,0,0,0,0,0,0,0
</data>
 </layer>
</map>
