<?xml version="1.0" encoding="UTF-8"?>
<map version="1.10" tiledversion="1.12.1" orientation="orthogonal" renderorder="right-down" width="20" height="18" tilewidth="8" tileheight="8" infinite="0" nextlayerid="3" nextobjectid="1">
 <tileset firstgid="1" source="../Tilesets/goner_maker/goner_maker.tsx"/>
 <layer id="1" name="drugs" width="20" height="18">
  <data encoding="csv">
11,12,13,8,8,16,17,8,27,28,2147483676,2147483675,2147483656,2147483665,2147483664,2147483656,2147483656,2147483661,2147483660,2147483659,
21,22,23,24,25,26,27,8,8,8,2147483656,2147483656,2147483656,2147483675,2147483674,2147483673,2147483672,2147483671,2147483670,2147483669,
31,32,33,34,35,36,37,8,8,8,2147483656,2147483656,2147483656,2147483685,2147483684,2147483683,2147483682,2147483681,2147483680,2147483679,
8,8,8,8,45,46,8,8,8,8,2147483656,2147483656,2147483656,2147483656,2147483694,2147483693,2147483656,2147483656,2147483656,2147483656,
8,19,8,8,8,8,8,8,1073741839,8,2147483656,3221225487,2147483656,2147483656,2147483656,2147483656,2147483656,2147483656,2147483667,2147483656,
8,8,8,8,8,8,8,8,8,8,2147483656,2147483656,2147483656,2147483656,2147483656,2147483656,2147483656,2147483656,2147483656,2147483656,
8,8,63,64,65,66,67,68,69,8,2147483656,2147483717,2147483716,2147483715,2147483714,2147483713,2147483712,2147483711,2147483656,2147483656,
8,72,73,74,75,76,77,78,79,80,2147483728,2147483727,2147483726,2147483725,2147483724,2147483723,2147483722,2147483721,2147483720,2147483656,
81,82,83,84,8,8,8,8,8,8,2147483656,2147483656,2147483656,2147483656,2147483656,2147483656,2147483732,2147483731,2147483730,2147483729,
1073741905,1073741906,1073741907,1073741908,1073741832,1073741832,1073741832,1073741832,1073741832,1073741832,3221225480,3221225480,3221225480,3221225480,3221225480,3221225480,3221225556,3221225555,3221225554,3221225553,
1073741832,1073741896,1073741897,1073741898,1073741899,1073741900,1073741901,1073741902,1073741903,1073741904,3221225552,3221225551,3221225550,3221225549,3221225548,3221225547,3221225546,3221225545,3221225544,3221225480,
1073741832,1073741832,1073741887,1073741888,1073741889,1073741890,1073741891,1073741892,1073741893,1073741832,3221225480,3221225541,3221225540,3221225539,3221225538,3221225537,3221225536,3221225535,3221225480,3221225480,
1073741832,1073741832,1073741832,1073741832,1073741832,1073741832,1073741832,1073741832,1073741832,1073741832,3221225480,3221225480,3221225480,3221225480,3221225480,3221225480,3221225480,3221225480,3221225480,3221225480,
1073741832,1073741843,1073741832,1073741832,1073741832,1073741832,1073741832,1073741832,15,1073741832,3221225480,2147483663,3221225480,3221225480,3221225480,3221225480,3221225480,3221225480,3221225491,3221225480,
1073741832,1073741832,1073741832,1073741832,1073741869,1073741870,1073741832,1073741832,1073741832,1073741832,3221225480,3221225480,3221225480,3221225480,3221225518,3221225517,3221225480,3221225480,3221225480,3221225480,
1073741855,1073741856,1073741857,1073741858,1073741859,1073741860,1073741861,1073741832,1073741832,1073741832,3221225480,3221225480,3221225480,3221225509,3221225508,3221225507,3221225506,3221225505,3221225504,3221225503,
1073741845,1073741846,1073741847,1073741848,1073741849,1073741850,1073741851,1073741832,1073741832,1073741832,3221225480,3221225480,3221225480,3221225499,3221225498,3221225497,3221225496,3221225495,3221225494,3221225493,
1073741835,1073741836,1073741837,1073741832,1073741832,1073741840,1073741841,1073741832,1073741851,1073741852,3221225500,3221225499,3221225480,3221225489,3221225488,3221225480,3221225480,3221225485,3221225484,3221225483
</data>
 </layer>
 <layer id="2" name="blank" width="20" height="18" visible="0">
  <data encoding="csv">
8,8,8,8,8,8,8,8,8,8,8,8,8,8,8,8,8,8,8,8,
8,8,8,8,8,8,8,8,8,8,8,8,8,8,8,8,8,8,8,8,
8,8,8,8,8,8,8,8,8,8,8,8,8,8,8,8,8,8,8,8,
8,8,8,8,8,8,8,8,8,8,8,8,8,8,8,8,8,8,8,8,
8,8,8,8,8,8,8,8,8,8,8,8,8,8,8,8,8,8,8,8,
8,8,8,8,8,8,8,8,8,8,8,8,8,8,8,8,8,8,8,8,
8,8,8,8,8,8,8,8,8,8,8,8,8,8,8,8,8,8,8,8,
8,8,8,8,8,8,8,8,8,8,8,8,8,8,8,8,8,8,8,8,
8,8,8,8,8,8,8,8,8,8,8,8,8,8,8,8,8,8,8,8,
8,8,8,8,8,8,8,8,8,8,8,8,8,8,8,8,8,8,8,8,
8,8,8,8,8,8,8,8,8,8,8,8,8,8,8,8,8,8,8,8,
8,8,8,8,8,8,8,8,8,8,8,8,8,8,8,8,8,8,8,8,
8,8,8,8,8,8,8,8,8,8,8,8,8,8,8,8,8,8,8,8,
8,8,8,8,8,8,8,8,8,8,8,8,8,8,8,8,8,8,8,8,
8,8,8,8,8,8,8,8,8,8,8,8,8,8,8,8,8,8,8,8,
8,8,8,8,8,8,8,8,8,8,8,8,8,8,8,8,8,8,8,8,
8,8,8,8,8,8,8,8,8,8,8,8,8,8,8,8,8,8,8,8,
8,8,8,8,8,8,8,8,8,8,8,8,8,8,8,8,8,8,8,8
</data>
 </layer>
</map>
